X:1070
T:Sully's No. 6
R:reel
C:Anthony Sullivan
D:L\'unasa
Z:id:hn-reel-1070
M:C|
L:1/8
K:A
A3B cABA | FE~E2 FECE | ~A3B cefe | afec BFAF |
EA~A2 FAEA | ce~e2 cebf | affe f2af |1 ecBc AFEF :|2 ecBc ABcd || 
|: e3c f2ec | BdcB AF~F2 | ce~e2 fece | ~f3a afed |
ce~e2 feaf | eAcA BAFA | ~a3e f2af |1 ecBc ABcd :|2 ecBc AFEF ||

